X:1
T: Glasgow Caledonian
P:for the Strathspey and Reel Society
R:Reel
Q: 232
K:F
M:4/4
L:1/8
|:B|Ac =Bc dc AF|BA GF EC EG|Ac =Bc dc Ac|df eg fF FB|
Ac =Bc dc AF|BA GF EC EG|Ac =Bc dc Ac|df eg fF FB|
Ac fe dc AF|BA GF EC EG|Ac Bd ce df|ef gb af fc|
Ac fe dc AF|BA GF EC CA,|B,D CE DF EG|ce gb af f:|
